X:1
T:French Suite IV Air
T:BWV 815
T:J. S. Bach
%%score { 1 | 2 }
L:1/8
M:4/4
K:Eb
V:1 treble nm="Harp"
V:2 bass 
V:1
 B/e/d/c/ B/A/G/F/ | E2 z F G/E/D/E/ B/F/E/F/ | G/A/G/F/ E/G/F/A/ G/c/=B/c/ e/d/c/_B/ | %3
 =A/B/A/G/ F/A/G/B/ A/d/c/d/ f/e/d/c/ | B/c/B/=A/ G/B/c/d/ e/g/f/g/ b/a/g/f/ | %5
 e/g/f/g/ c'/b/=a/g/ f/e/d/c/ d/B/c/=A/ | B4 B/e/d/c/ B/A/G/F/ | E2 z F G/E/D/E/ B/F/E/F/ | %8
 G/A/G/F/ E/G/F/A/ G/c/=B/c/ e/d/c/_B/ | =A/B/A/G/ F/A/G/B/ A/d/c/d/ f/e/d/c/ | %10
 B/c/B/=A/ G/B/c/d/ e/g/f/g/ b/a/g/f/ | e/g/f/g/ c'/b/=a/g/ f/e/d/c/ d/B/c/=A/ | %12
 B4 d/B/c/d/ e/f/g/a/ | g2 z f e/c/=B/c/ a/c/B/c/ | d/c/=B/=A/ G/F/=E/D/ z/ c/B/c/ d/c/B/c/ | %15
 a/f/c z2 z/ B/=A/B/ c/B/A/B/ | g/e/B z2 z f/e/ d/e/f- | fe/d/ c/d/e- ed/c/ g/f/e/d/ | %18
 c2 z2 z/ c/d/e/ d/c/B/=A/ | f2 z =A B/F/G/A/ B/d/c/e/ | d/B/c/d/ e/g/f/a/ g/e/f/g/ a/g/f/e/ | %21
 _d/B/c/f/ e/=d/c/B/ A/F/G/e/ d/c/B/A/ | G/E/F z2 B/e/d/c/ B/A/G/F/ | E2 z F G/c/B/A/ G/F/E/_D/ | %24
 C/_D/C/B,/ A,/C/B,/D/ C/F/=E/F/ A/G/F/_E/ | D/E/D/C/ B,/D/C/E/ D/G/F/G/ B/A/G/F/ | %26
 E/F/E/D/ C/E/F/G/ A/c/B/c/ e/_d/c/B/ | A/c/B/c/ f/e/d/c/ B/A/G/F/ G/e/F/d/ | %28
 E4 d/B/c/d/ e/f/g/a/ | g2 z f e/c/=B/c/ a/c/B/c/ | d/c/=B/=A/ G/F/=E/D/ z/ c/B/c/ d/c/B/c/ | %31
 a/f/c z2 z/ B/=A/B/ c/B/A/B/ | g/e/B z2 z f/e/ d/e/f- | fe/d/ c/d/e- ed/c/ g/f/e/d/ | %34
 c2 z2 z/ c/d/e/ d/c/B/=A/ | f2 z =A B/F/G/A/ B/d/c/e/ | d/B/c/d/ e/g/f/a/ g/e/f/g/ a/g/f/e/ | %37
 _d/B/c/f/ e/=d/c/B/ A/F/G/e/ d/c/B/A/ | G/E/F z2 B/e/d/c/ B/A/G/F/ | E2 z F G/c/B/A/ G/F/E/_D/ | %40
 C/_D/C/B,/ A,/C/B,/D/ C/F/=E/F/ A/G/F/_E/ | D/E/D/C/ B,/D/C/E/ D/G/F/G/ B/A/G/F/ | %42
 E/F/E/D/ C/E/F/G/ A/c/B/c/ e/_d/c/B/ | A/c/B/c/ f/e/d/c/ B/A/G/F/ G/e/F/d/ | !fermata!E4 z4 |] %45
V:2
 E,,2 z2 | z/ E,/D/C/ B,/A,/G,/F,/ E,B,D,B, | E,B,,G,,B,, E,,E,C,E, | F,,2 z2 z F,D,F, | %4
 G,,2 z2 z E,G,B, | C,B,=A,C D,B,/A,/ B,F, | B,,/E,/D,/C,/ B,,/A,,/G,,/F,,/ E,,2 z2 | %7
 z/ E,/D/C/ B,/A,/G,/F,/ E,B,D,B, | E,B,,G,,B,, E,,E,C,E, | F,,2 z2 z F,D,F, | G,,2 z2 z E,G,B, | %11
 C,B,=A,C D,B,/A,/ B,F, | B,,F, B,2 B,,2 z2 | E,/C,/D,/E,/ F,/G,/=A,/=B,/ C_A,F,A, | %14
 G,2 z2[I:staff -1] =EGEG |[I:staff +1] F, z/[I:staff -1] B/ A/G/F/E/ DFDF | %16
[I:staff +1] E, z/[I:staff -1] A/ G/F/E/D/ C/B/A/G/ F/E/D/C/ | %17
 =B,/A/G/F/ E/D/C/_B,/[I:staff +1] A,/G,/A,/F,/ G,G,, | z/ C,/D,/E,/ F,/G,/=A,/=B,/ C_B,A,G, | %19
 =A,/E,/F,/G,/ F,/E,/D,/C,/ D,/C,/D,/E,/ D,/C,/B,,/=A,,/ | B,,A,G,B, E,_D,C,E, | %21
 A,,A,G,E, D,E,A,F, | B,>C B,/A,/G,/F,/ E,2 z2 | z/ E,/D/C/ B,/A,/G,/F,/ E,G,E,G, | %24
 A,E,C,E, A,,A,F,A, | B,,2 z2 z B,G,B, | C,2 z2 z A,CE | F,EDF G,E/D/ EB, | E,B,, E,,2 B,,2 z2 | %29
 E,/C,/D,/E,/ F,/G,/=A,/=B,/ C_A,F,A, | G,2 z2[I:staff -1] =EGEG | %31
[I:staff +1] F, z/[I:staff -1] B/ A/G/F/E/ DFDF | %32
[I:staff +1] E, z/[I:staff -1] A/ G/F/E/D/ C/B/A/G/ F/E/D/C/ | %33
 =B,/A/G/F/ E/D/C/_B,/[I:staff +1] A,/G,/A,/F,/ G,G,, | z/ C,/D,/E,/ F,/G,/=A,/=B,/ C_B,A,G, | %35
 =A,/E,/F,/G,/ F,/E,/D,/C,/ D,/C,/D,/E,/ D,/C,/B,,/=A,,/ | B,,A,G,B, E,_D,C,E, | %37
 A,,A,G,E, D,E,A,F, | B,>C B,/A,/G,/F,/ E,2 z2 | z/ E,/D/C/ B,/A,/G,/F,/ E,G,E,G, | %40
 A,E,C,E, A,,A,F,A, | B,,2 z2 z B,G,B, | C,2 z2 z A,CE | F,EDF G,E/D/ EB, | %44
 E,B,, !fermata!E,,2 z4 |] %45

